X:1
T:Title
%%score ( 1 2 ) { 3 | 4 }
L:1/8
Q:1/4=115
M:4/4
K:F
V:1 treble nm="Grand Piano, Unnamed-000"
V:2 treble 
V:3 bass nm="Choir Pad, Noel"
V:4 bass 
V:1
 FG [FA]2 [EG]2 F2 | z8 | z4 z2 .B2 | [Fd]2 [Fc]6 | .A2 z2 z4 | F2 [FB]2 [FA]2 [EG]2 | z2 .A2 z4 | %7
w: By~Arthur~Seymour~Sullivan,~1871 * * * *|||||||
 [EG]2 F6 | [DF]2 [^CE]2 D2 [DE]2 | [^CG]2 [DF]2- [DF][CE] D2 | [FA]2 [EG]2 [DF]2 [CE]2 | %11
w: ||||
 [=B,D]2 C6 | C2 [Ac]2 [GB]2 [^FA]2 | z2 B2 z4 | FG[FA][GB] [Ac]2 [FA]2 | [EG]2 F6- | F2 z2 z4 |] %17
w: ||||||
V:2
 x8 | [DG][FA] [EB]2 [FA]2 [EG]2- | [EG][Ec] [Fc]2 [FA]2 F-[Fc] | x8 | F-[FB] [Ec]2 [Ec]2 [FA]2 | %5
 x8 | FGF-[FB] [Cc]2 [FA]2 | x8 | x8 | x8 | x8 | x8 | x8 | [EG][^FA]GE [=FA]2 [EG]2 | x8 | x8 | %16
 x8 |] %17
V:3
 A,B, C2 C2 A,2 | DC B,2 C2 C2- | CC C2 C2[K:bass] B,2 | B,2 A,6 | C2 C2 G,2 F,2 | A,2 D2 C2 C2 | %6
 A,2 F,2 F,2 C2 | B,2 A,6 | F,2 G,2 A,2 B,2 | A,2 A,2- A,G, F,2 | =B,2 C2 A,2 G,2 | F,2 E,6 | %12
 C,2[K:treble] C2 C2 C2 | B,A, G,2 C2 C2 | A,2 C2- C/ z/[K:bass] C C2 | B,2 A,6- | A,2 z2 z4 |] %17
V:4
 F,2 F,2 C,2 F,2 | B,A, G,2 F,2 C,2- | C,B, A,2 F,2 D,2 | B,,2 F,6 | F,2 C,2 C,2 D,2 | %5
 D,2 B,,2 F,2 C,2 | F,2 D,2 A,,B,, C,2 | C,2 F,,6 | D,2 E,2 F,2 G,2 | z2 D,2- D,D, D,2 | %10
 D,2 E,2 F,2 z2 | G,,2 C,6 | z2 A,,2 B,,C, D,2 | D,2 G,,2 A,,B,, C,2 | D,2 A,,2 G,,F,, C,2 | %15
 C,2 [F,,F,]6- | [F,,F,]2 z2 z4 |] %17

